packages/ui-icons/svg/Solid/save.svg

<svg viewBox="0 0 1920 1920" version="1.1" xmlns="http://www.w3.org/2000/svg">
    <path d="M1524.82353,1242.35294 C1618.22588,1242.35294 1694.23529,1318.36235 1694.23529,1411.76471 L1694.23529,1411.76471 L1694.23529,1750.58824 C1694.23529,1843.99059 1618.22588,1920 1524.82353,1920 L1524.82353,1920 L395.411765,1920 C302.009412,1920 226,1843.99059 226,1750.58824 L226,1750.58824 L226,1411.76471 C226,1318.36235 302.009412,1242.35294 395.411765,1242.35294 L395.411765,1242.35294 Z M1016.58824,0 L1016.58824,338.823529 L903.647059,338.823529 L903.647059,0 L1016.58824,0 Z M564.823529,1468.23529 C627.167059,1468.23529 677.764706,1518.94588 677.764706,1581.17647 C677.764706,1643.40706 627.167059,1694.11765 564.823529,1694.11765 C502.48,1694.11765 451.882353,1643.40706 451.882353,1581.17647 C451.882353,1518.94588 502.48,1468.23529 564.823529,1468.23529 Z M903.647059,338.823529 L903.647059,767.209412 L657.322353,520.884706 L577.472941,600.734118 L960.117647,983.378824 L1342.76235,600.734118 L1262.91294,520.884706 L1016.58824,767.209412 L1016.58824,338.823529 L1524.82353,338.823529 C1618.56471,338.823529 1694.23529,414.494118 1694.23529,508.235294 L1694.23529,508.235294 L1694.23529,1185.88235 C1647.92941,1150.87059 1588.07059,1129.41176 1524.82353,1129.41176 L1524.82353,1129.41176 L395.411765,1129.41176 C332.164706,1129.41176 272.305882,1150.87059 226,1185.88235 L226,1185.88235 L226,508.235294 C226,414.494118 301.670588,338.823529 395.411765,338.823529 L395.411765,338.823529 L903.647059,338.823529 Z" stroke="none" stroke-width="1" fill-rule="evenodd"/>
</svg>

<svg viewBox="0 0 1920 1920" version="1.1" xmlns="http://www.w3.org/2000/svg">
    <path d="M903.647 338.824V0h112.941v338.824h-112.94zm621.177 903.529c93.402 0 169.411 76.01 169.411 169.412v338.823c0 93.403-76.01 169.412-169.411 169.412H395.412C302.009 1920 226 1843.99 226 1750.588v-338.823c0-93.403 76.01-169.412 169.412-169.412h1129.412zm-960 451.765c-62.344 0-112.942-50.71-112.942-112.942 0-62.23 50.598-112.94 112.942-112.94 62.343 0 112.94 50.71 112.94 112.94 0 62.231-50.597 112.942-112.94 112.942zm960-1355.294c93.74 0 169.411 75.67 169.411 169.411v677.647c-46.306-35.011-106.164-56.47-169.411-56.47H395.412c-63.247 0-123.106 21.459-169.412 56.47V508.235c0-93.74 75.67-169.411 169.412-169.411h508.235v428.385L657.322 520.885l-79.85 79.85 382.646 382.644 382.644-382.645-79.85-79.85-246.324 246.325V338.824h508.236z" stroke="none" stroke-width="1" fill-rule="evenodd"/>
</svg>
